assets/img/logo-ic.svg

<svg width="48" height="58" viewBox="0 0 48 58" fill="none" xmlns="http://www.w3.org/2000/svg">
<path d="M1.99998 55.97H0V58H1.99998V55.97Z" fill="#E2231A"/>
<path d="M1.99998 53.3599H0V55.3899H1.99998V53.3599Z" fill="#E2231A"/>
<path d="M1.99998 50.75H0V52.78H1.99998V50.75Z" fill="#E2231A"/>
<path d="M1.99998 48.1399H0V50.1699H1.99998V48.1399Z" fill="#E2231A"/>
<path d="M1.99998 45.53H0V47.56H1.99998V45.53Z" fill="#E2231A"/>
<path d="M1.99998 42.92H0V44.95H1.99998V42.92Z" fill="#E2231A"/>
<path d="M1.99998 40.3101H0V42.3401H1.99998V40.3101Z" fill="#E2231A"/>
<path d="M1.99998 37.7H0V39.73H1.99998V37.7Z" fill="#E2231A"/>
<path d="M1.99998 35.09H0V37.12H1.99998V35.09Z" fill="#E2231A"/>
<path d="M1.99998 32.4801H0V34.5101H1.99998V32.4801Z" fill="#E2231A"/>
<path d="M1.99998 29.87H0V31.9H1.99998V29.87Z" fill="#E2231A"/>
<path d="M1.99998 27.2599H0V29.2899H1.99998V27.2599Z" fill="#E2231A"/>
<path d="M1.99998 24.6499H0V26.6799H1.99998V24.6499Z" fill="#E2231A"/>
<path d="M1.99998 22.04H0V24.07H1.99998V22.04Z" fill="#E2231A"/>
<path d="M1.99998 16.5299H0V18.5599H1.99998V16.5299Z" fill="#E2231A"/>
<path d="M1.99998 11.0199H0V13.0499H1.99998V11.0199Z" fill="#E2231A"/>
<path d="M1.99998 4.93005H0V6.96005H1.99998V4.93005Z" fill="#E2231A"/>
<path d="M1.99998 0H0V2.03H1.99998V0Z" fill="#E2231A"/>
<path d="M14.8576 27.2599H12.8576V29.2899H14.8576V27.2599Z" fill="#E2231A"/>
<path d="M14.8576 24.6499H12.8576V26.6799H14.8576V24.6499Z" fill="#E2231A"/>
<path d="M14.8576 20.0099H12.8576V22.0399H14.8576V20.0099Z" fill="#E2231A"/>
<path d="M14.8576 15.66H12.8576V17.69H14.8576V15.66Z" fill="#E2231A"/>
<path d="M37.7142 55.97H35.7142V58H37.7142V55.97Z" fill="#E2231A"/>
<path d="M37.7142 53.3599H35.7142V55.3899H37.7142V53.3599Z" fill="#E2231A"/>
<path d="M37.7142 50.75H35.7142V52.78H37.7142V50.75Z" fill="#E2231A"/>
<path d="M37.7142 48.1399H35.7142V50.1699H37.7142V48.1399Z" fill="#E2231A"/>
<path d="M37.7142 45.53H35.7142V47.56H37.7142V45.53Z" fill="#E2231A"/>
<path d="M37.7142 42.92H35.7142V44.95H37.7142V42.92Z" fill="#E2231A"/>
<path d="M37.7142 40.3101H35.7142V42.3401H37.7142V40.3101Z" fill="#E2231A"/>
<path d="M37.7142 37.7H35.7142V39.73H37.7142V37.7Z" fill="#E2231A"/>
<path d="M37.7142 35.09H35.7142V37.12H37.7142V35.09Z" fill="#E2231A"/>
<path d="M37.7142 32.4801H35.7142V34.5101H37.7142V32.4801Z" fill="#E2231A"/>
<path d="M37.7142 29.87H35.7142V31.9H37.7142V29.87Z" fill="#E2231A"/>
<path d="M37.7142 27.2599H35.7142V29.2899H37.7142V27.2599Z" fill="#E2231A"/>
<path d="M37.7142 24.6499H35.7142V26.6799H37.7142V24.6499Z" fill="#E2231A"/>
<path d="M37.7142 22.04H35.7142V24.07H37.7142V22.04Z" fill="#E2231A"/>
<path d="M37.7142 19.4301H35.7142V21.4601H37.7142V19.4301Z" fill="#E2231A"/>
<path d="M37.7142 16.8199H35.7142V18.8499H37.7142V16.8199Z" fill="#E2231A"/>
<path d="M37.7142 13.63H35.7142V15.66H37.7142V13.63Z" fill="#E2231A"/>
<path d="M4.57178 55.97H2.5718V58H4.57178V55.97Z" fill="#E2231A"/>
<path d="M4.57178 53.3599H2.5718V55.3899H4.57178V53.3599Z" fill="#E2231A"/>
<path d="M4.57178 50.75H2.5718V52.78H4.57178V50.75Z" fill="#E2231A"/>
<path d="M4.57178 48.1399H2.5718V50.1699H4.57178V48.1399Z" fill="#E2231A"/>
<path d="M4.57178 45.53H2.5718V47.56H4.57178V45.53Z" fill="#E2231A"/>
<path d="M4.57178 42.92H2.5718V44.95H4.57178V42.92Z" fill="#E2231A"/>
<path d="M4.57178 40.3101H2.5718V42.3401H4.57178V40.3101Z" fill="#E2231A"/>
<path d="M4.57178 37.7H2.5718V39.73H4.57178V37.7Z" fill="#E2231A"/>
<path d="M4.57178 35.09H2.5718V37.12H4.57178V35.09Z" fill="#E2231A"/>
<path d="M4.57178 32.4801H2.5718V34.5101H4.57178V32.4801Z" fill="#E2231A"/>
<path d="M4.57178 29.87H2.5718V31.9H4.57178V29.87Z" fill="#E2231A"/>
<path d="M4.57178 27.2599H2.5718V29.2899H4.57178V27.2599Z" fill="#E2231A"/>
<path d="M4.57178 24.36H2.5718V26.39H4.57178V24.36Z" fill="#E2231A"/>
<path d="M4.57178 19.72H2.5718V21.75H4.57178V19.72Z" fill="#E2231A"/>
<path d="M4.57178 13.34H2.5718V15.37H4.57178V13.34Z" fill="#E2231A"/>
<path d="M4.57178 7.54005H2.5718V9.57005H4.57178V7.54005Z" fill="#E2231A"/>
<path d="M17.4281 27.2599H15.4281V29.2899H17.4281V27.2599Z" fill="#E2231A"/>
<path d="M17.4281 24.6499H15.4281V26.6799H17.4281V24.6499Z" fill="#E2231A"/>
<path d="M17.4281 22.04H15.4281V24.07H17.4281V22.04Z" fill="#E2231A"/>
<path d="M17.4281 17.6901H15.4281V19.7201H17.4281V17.6901Z" fill="#E2231A"/>
<path d="M17.4281 10.4401H15.4281V12.4701H17.4281V10.4401Z" fill="#E2231A"/>
<path d="M27.7139 27.2599H25.7139V29.2899H27.7139V27.2599Z" fill="#E2231A"/>
<path d="M27.7139 24.6499H25.7139V26.6799H27.7139V24.6499Z" fill="#E2231A"/>
<path d="M27.7139 20.0099H25.7139V22.0399H27.7139V20.0099Z" fill="#E2231A"/>
<path d="M27.7139 15.37H25.7139V17.4H27.7139V15.37Z" fill="#E2231A"/>
<path d="M40.2846 55.97H38.2846V58H40.2846V55.97Z" fill="#E2231A"/>
<path d="M40.2846 53.3599H38.2846V55.3899H40.2846V53.3599Z" fill="#E2231A"/>
<path d="M40.2846 50.75H38.2846V52.78H40.2846V50.75Z" fill="#E2231A"/>
<path d="M40.2846 48.1399H38.2846V50.1699H40.2846V48.1399Z" fill="#E2231A"/>
<path d="M40.2846 45.53H38.2846V47.56H40.2846V45.53Z" fill="#E2231A"/>
<path d="M40.2846 42.92H38.2846V44.95H40.2846V42.92Z" fill="#E2231A"/>
<path d="M40.2846 40.3101H38.2846V42.3401H40.2846V40.3101Z" fill="#E2231A"/>
<path d="M40.2846 37.7H38.2846V39.73H40.2846V37.7Z" fill="#E2231A"/>
<path d="M40.2846 35.09H38.2846V37.12H40.2846V35.09Z" fill="#E2231A"/>
<path d="M40.2846 32.4801H38.2846V34.5101H40.2846V32.4801Z" fill="#E2231A"/>
<path d="M40.2846 29.87H38.2846V31.9H40.2846V29.87Z" fill="#E2231A"/>
<path d="M40.2846 27.2599H38.2846V29.2899H40.2846V27.2599Z" fill="#E2231A"/>
<path d="M40.2846 24.6499H38.2846V26.6799H40.2846V24.6499Z" fill="#E2231A"/>
<path d="M40.2846 22.04H38.2846V24.07H40.2846V22.04Z" fill="#E2231A"/>
<path d="M40.2846 19.4301H38.2846V21.4601H40.2846V19.4301Z" fill="#E2231A"/>
<path d="M40.2846 16.8199H38.2846V18.8499H40.2846V16.8199Z" fill="#E2231A"/>
<path d="M7.14223 55.97H5.14224V58H7.14223V55.97Z" fill="#E2231A"/>
<path d="M7.14223 53.3599H5.14224V55.3899H7.14223V53.3599Z" fill="#E2231A"/>
<path d="M7.14223 50.75H5.14224V52.78H7.14223V50.75Z" fill="#E2231A"/>
<path d="M7.14223 48.1399H5.14224V50.1699H7.14223V48.1399Z" fill="#E2231A"/>
<path d="M7.14223 45.53H5.14224V47.56H7.14223V45.53Z" fill="#E2231A"/>
<path d="M7.14223 42.92H5.14224V44.95H7.14223V42.92Z" fill="#E2231A"/>
<path d="M7.14223 40.3101H5.14224V42.3401H7.14223V40.3101Z" fill="#E2231A"/>
<path d="M7.14223 37.7H5.14224V39.73H7.14223V37.7Z" fill="#E2231A"/>
<path d="M7.14223 35.09H5.14224V37.12H7.14223V35.09Z" fill="#E2231A"/>
<path d="M7.14223 32.4801H5.14224V34.5101H7.14223V32.4801Z" fill="#E2231A"/>
<path d="M7.14223 29.87H5.14224V31.9H7.14223V29.87Z" fill="#E2231A"/>
<path d="M7.14223 27.2599H5.14224V29.2899H7.14223V27.2599Z" fill="#E2231A"/>
<path d="M7.14223 24.6499H5.14224V26.6799H7.14223V24.6499Z" fill="#E2231A"/>
<path d="M7.14223 21.46H5.14224V23.49H7.14223V21.46Z" fill="#E2231A"/>
<path d="M7.14223 16.2401H5.14224V18.2701H7.14223V16.2401Z" fill="#E2231A"/>
<path d="M7.14223 10.4401H5.14224V12.4701H7.14223V10.4401Z" fill="#E2231A"/>
<path d="M7.14223 2.89995H5.14224V4.92995H7.14223V2.89995Z" fill="#E2231A"/>
<path d="M19.9999 27.2599H17.9999V29.2899H19.9999V27.2599Z" fill="#E2231A"/>
<path d="M19.9999 24.6499H17.9999V26.6799H19.9999V24.6499Z" fill="#E2231A"/>
<path d="M19.9999 21.75H17.9999V23.78H19.9999V21.75Z" fill="#E2231A"/>
<path d="M19.9999 18.5601H17.9999V20.5901H19.9999V18.5601Z" fill="#E2231A"/>
<path d="M19.9999 14.2099H17.9999V16.24H19.9999V14.2099Z" fill="#E2231A"/>
<path d="M30.2857 27.2599H28.2858V29.2899H30.2857V27.2599Z" fill="#E2231A"/>
<path d="M30.2857 24.6499H28.2858V26.6799H30.2857V24.6499Z" fill="#E2231A"/>
<path d="M30.2857 22.04H28.2858V24.07H30.2857V22.04Z" fill="#E2231A"/>
<path d="M30.2857 19.4301H28.2858V21.4601H30.2857V19.4301Z" fill="#E2231A"/>
<path d="M30.2857 13.05H28.2858V15.08H30.2857V13.05Z" fill="#E2231A"/>
<path d="M42.8564 55.97H40.8564V58H42.8564V55.97Z" fill="#E2231A"/>
<path d="M42.8564 53.3599H40.8564V55.3899H42.8564V53.3599Z" fill="#E2231A"/>
<path d="M42.8564 50.75H40.8564V52.78H42.8564V50.75Z" fill="#E2231A"/>
<path d="M42.8564 48.1399H40.8564V50.1699H42.8564V48.1399Z" fill="#E2231A"/>
<path d="M42.8564 45.53H40.8564V47.56H42.8564V45.53Z" fill="#E2231A"/>
<path d="M42.8564 42.92H40.8564V44.95H42.8564V42.92Z" fill="#E2231A"/>
<path d="M42.8564 40.3101H40.8564V42.3401H42.8564V40.3101Z" fill="#E2231A"/>
<path d="M42.8564 37.7H40.8564V39.73H42.8564V37.7Z" fill="#E2231A"/>
<path d="M42.8564 35.09H40.8564V37.12H42.8564V35.09Z" fill="#E2231A"/>
<path d="M42.8564 32.4801H40.8564V34.5101H42.8564V32.4801Z" fill="#E2231A"/>
<path d="M42.8564 29.87H40.8564V31.9H42.8564V29.87Z" fill="#E2231A"/>
<path d="M42.8564 27.2599H40.8564V29.2899H42.8564V27.2599Z" fill="#E2231A"/>
<path d="M42.8564 24.6499H40.8564V26.6799H42.8564V24.6499Z" fill="#E2231A"/>
<path d="M42.8564 22.04H40.8564V24.07H42.8564V22.04Z" fill="#E2231A"/>
<path d="M42.8564 19.4301H40.8564V21.4601H42.8564V19.4301Z" fill="#E2231A"/>
<path d="M42.8564 14.2099H40.8564V16.24H42.8564V14.2099Z" fill="#E2231A"/>
<path d="M9.71405 55.97H7.71407V58H9.71405V55.97Z" fill="#E2231A"/>
<path d="M9.71405 53.3599H7.71407V55.3899H9.71405V53.3599Z" fill="#E2231A"/>
<path d="M9.71405 50.75H7.71407V52.78H9.71405V50.75Z" fill="#E2231A"/>
<path d="M9.71405 48.1399H7.71407V50.1699H9.71405V48.1399Z" fill="#E2231A"/>
<path d="M9.71405 45.53H7.71407V47.56H9.71405V45.53Z" fill="#E2231A"/>
<path d="M9.71405 42.92H7.71407V44.95H9.71405V42.92Z" fill="#E2231A"/>
<path d="M9.71405 40.3101H7.71407V42.3401H9.71405V40.3101Z" fill="#E2231A"/>
<path d="M9.71405 37.7H7.71407V39.73H9.71405V37.7Z" fill="#E2231A"/>
<path d="M9.71405 35.09H7.71407V37.12H9.71405V35.09Z" fill="#E2231A"/>
<path d="M9.71405 32.4801H7.71407V34.5101H9.71405V32.4801Z" fill="#E2231A"/>
<path d="M9.71405 29.87H7.71407V31.9H9.71405V29.87Z" fill="#E2231A"/>
<path d="M9.71405 27.2599H7.71407V29.2899H9.71405V27.2599Z" fill="#E2231A"/>
<path d="M9.71405 24.6499H7.71407V26.6799H9.71405V24.6499Z" fill="#E2231A"/>
<path d="M9.71405 22.04H7.71407V24.07H9.71405V22.04Z" fill="#E2231A"/>
<path d="M9.71405 19.4301H7.71407V21.4601H9.71405V19.4301Z" fill="#E2231A"/>
<path d="M9.71405 16.8199H7.71407V18.8499H9.71405V16.8199Z" fill="#E2231A"/>
<path d="M9.71405 14.2099H7.71407V16.24H9.71405V14.2099Z" fill="#E2231A"/>
<path d="M9.71405 11.6001H7.71407V13.6301H9.71405V11.6001Z" fill="#E2231A"/>
<path d="M9.71405 6.38003H7.71407V8.41003H9.71405V6.38003Z" fill="#E2231A"/>
<path d="M22.5717 27.2599H20.5717V29.2899H22.5717V27.2599Z" fill="#E2231A"/>
<path d="M22.5717 24.6499H20.5717V26.6799H22.5717V24.6499Z" fill="#E2231A"/>
<path d="M22.5717 20.88H20.5717V22.91H22.5717V20.88Z" fill="#E2231A"/>
<path d="M22.5717 15.37H20.5717V17.4H22.5717V15.37Z" fill="#E2231A"/>
<path d="M32.8561 27.2599H30.8562V29.2899H32.8561V27.2599Z" fill="#E2231A"/>
<path d="M32.8561 24.6499H30.8562V26.6799H32.8561V24.6499Z" fill="#E2231A"/>
<path d="M32.8561 22.04H30.8562V24.07H32.8561V22.04Z" fill="#E2231A"/>
<path d="M32.8561 18.2699H30.8562V20.2999H32.8561V18.2699Z" fill="#E2231A"/>
<path d="M32.8561 14.2099H30.8562V16.24H32.8561V14.2099Z" fill="#E2231A"/>
<path d="M45.4282 55.97H43.4282V58H45.4282V55.97Z" fill="#E2231A"/>
<path d="M45.4282 53.3599H43.4282V55.3899H45.4282V53.3599Z" fill="#E2231A"/>
<path d="M45.4282 50.75H43.4282V52.78H45.4282V50.75Z" fill="#E2231A"/>
<path d="M45.4282 48.1399H43.4282V50.1699H45.4282V48.1399Z" fill="#E2231A"/>
<path d="M45.4282 45.53H43.4282V47.56H45.4282V45.53Z" fill="#E2231A"/>
<path d="M45.4282 42.92H43.4282V44.95H45.4282V42.92Z" fill="#E2231A"/>
<path d="M45.4282 40.3101H43.4282V42.3401H45.4282V40.3101Z" fill="#E2231A"/>
<path d="M45.4282 37.7H43.4282V39.73H45.4282V37.7Z" fill="#E2231A"/>
<path d="M45.4282 35.09H43.4282V37.12H45.4282V35.09Z" fill="#E2231A"/>
<path d="M45.4282 32.4801H43.4282V34.5101H45.4282V32.4801Z" fill="#E2231A"/>
<path d="M45.4282 29.87H43.4282V31.9H45.4282V29.87Z" fill="#E2231A"/>
<path d="M45.4282 27.2599H43.4282V29.2899H45.4282V27.2599Z" fill="#E2231A"/>
<path d="M45.4282 24.6499H43.4282V26.6799H45.4282V24.6499Z" fill="#E2231A"/>
<path d="M45.4282 22.04H43.4282V24.07H45.4282V22.04Z" fill="#E2231A"/>
<path d="M45.4282 19.4301H43.4282V21.4601H45.4282V19.4301Z" fill="#E2231A"/>
<path d="M45.4282 16.8199H43.4282V18.8499H45.4282V16.8199Z" fill="#E2231A"/>
<path d="M12.2858 55.97H10.2858V58H12.2858V55.97Z" fill="#E2231A"/>
<path d="M12.2858 53.3599H10.2858V55.3899H12.2858V53.3599Z" fill="#E2231A"/>
<path d="M12.2858 50.75H10.2858V52.78H12.2858V50.75Z" fill="#E2231A"/>
<path d="M12.2858 48.1399H10.2858V50.1699H12.2858V48.1399Z" fill="#E2231A"/>
<path d="M12.2858 45.53H10.2858V47.56H12.2858V45.53Z" fill="#E2231A"/>
<path d="M12.2858 42.92H10.2858V44.95H12.2858V42.92Z" fill="#E2231A"/>
<path d="M12.2858 40.3101H10.2858V42.3401H12.2858V40.3101Z" fill="#E2231A"/>
<path d="M12.2858 37.7H10.2858V39.73H12.2858V37.7Z" fill="#E2231A"/>
<path d="M12.2858 35.09H10.2858V37.12H12.2858V35.09Z" fill="#E2231A"/>
<path d="M12.2858 32.4801H10.2858V34.5101H12.2858V32.4801Z" fill="#E2231A"/>
<path d="M12.2858 29.87H10.2858V31.9H12.2858V29.87Z" fill="#E2231A"/>
<path d="M12.2858 27.2599H10.2858V29.2899H12.2858V27.2599Z" fill="#E2231A"/>
<path d="M12.2858 24.6499H10.2858V26.6799H12.2858V24.6499Z" fill="#E2231A"/>
<path d="M12.2858 21.1699H10.2858V23.1999H12.2858V21.1699Z" fill="#E2231A"/>
<path d="M12.2858 14.2099H10.2858V16.24H12.2858V14.2099Z" fill="#E2231A"/>
<path d="M12.2858 8.99011H10.2858V11.0201H12.2858V8.99011Z" fill="#E2231A"/>
<path d="M25.1421 27.2599H23.1422V29.2899H25.1421V27.2599Z" fill="#E2231A"/>
<path d="M25.1421 24.6499H23.1422V26.6799H25.1421V24.6499Z" fill="#E2231A"/>
<path d="M25.1421 22.04H23.1422V24.07H25.1421V22.04Z" fill="#E2231A"/>
<path d="M25.1421 17.4H23.1422V19.43H25.1421V17.4Z" fill="#E2231A"/>
<path d="M25.1421 11.6001H23.1422V13.6301H25.1421V11.6001Z" fill="#E2231A"/>
<path d="M35.428 27.2599H33.428V29.2899H35.428V27.2599Z" fill="#E2231A"/>
<path d="M35.428 24.6499H33.428V26.6799H35.428V24.6499Z" fill="#E2231A"/>
<path d="M35.428 21.75H33.428V23.78H35.428V21.75Z" fill="#E2231A"/>
<path d="M35.428 16.8199H33.428V18.8499H35.428V16.8199Z" fill="#E2231A"/>
<path d="M48 55.97H46V58H48V55.97Z" fill="#E2231A"/>
<path d="M48 53.3599H46V55.3899H48V53.3599Z" fill="#E2231A"/>
<path d="M48 50.75H46V52.78H48V50.75Z" fill="#E2231A"/>
<path d="M48 48.1399H46V50.1699H48V48.1399Z" fill="#E2231A"/>
<path d="M48 45.53H46V47.56H48V45.53Z" fill="#E2231A"/>
<path d="M48 42.92H46V44.95H48V42.92Z" fill="#E2231A"/>
<path d="M48 40.3101H46V42.3401H48V40.3101Z" fill="#E2231A"/>
<path d="M48 37.7H46V39.73H48V37.7Z" fill="#E2231A"/>
<path d="M48 35.09H46V37.12H48V35.09Z" fill="#E2231A"/>
<path d="M48 32.4801H46V34.5101H48V32.4801Z" fill="#E2231A"/>
<path d="M48 29.87H46V31.9H48V29.87Z" fill="#E2231A"/>
<path d="M48 27.2599H46V29.2899H48V27.2599Z" fill="#E2231A"/>
<path d="M48 24.6499H46V26.6799H48V24.6499Z" fill="#E2231A"/>
<path d="M48 22.04H46V24.07H48V22.04Z" fill="#E2231A"/>
<path d="M48 19.4301H46V21.4601H48V19.4301Z" fill="#E2231A"/>
</svg>

<svg width="48" height="58" fill="none" xmlns="http://www.w3.org/2000/svg"><path d="M2 55.97H0V58h2v-2.03ZM2 53.36H0v2.03h2v-2.03ZM2 50.75H0v2.03h2v-2.03ZM2 48.14H0v2.03h2v-2.03ZM2 45.53H0v2.03h2v-2.03ZM2 42.92H0v2.03h2v-2.03ZM2 40.31H0v2.03h2v-2.03ZM2 37.7H0v2.03h2V37.7ZM2 35.09H0v2.03h2v-2.03ZM2 32.48H0v2.03h2v-2.03ZM2 29.87H0v2.03h2v-2.03ZM2 27.26H0v2.03h2v-2.03ZM2 24.65H0v2.03h2v-2.03ZM2 22.04H0v2.03h2v-2.03ZM2 16.53H0v2.03h2v-2.03ZM2 11.02H0v2.03h2v-2.03ZM2 4.93H0v2.03h2V4.93ZM2 0H0v2.03h2V0ZM14.858 27.26h-2v2.03h2v-2.03ZM14.858 24.65h-2v2.03h2v-2.03ZM14.858 20.01h-2v2.03h2v-2.03ZM14.858 15.66h-2v2.03h2v-2.03ZM37.714 55.97h-2V58h2v-2.03ZM37.714 53.36h-2v2.03h2v-2.03ZM37.714 50.75h-2v2.03h2v-2.03ZM37.714 48.14h-2v2.03h2v-2.03ZM37.714 45.53h-2v2.03h2v-2.03ZM37.714 42.92h-2v2.03h2v-2.03ZM37.714 40.31h-2v2.03h2v-2.03ZM37.714 37.7h-2v2.03h2V37.7ZM37.714 35.09h-2v2.03h2v-2.03ZM37.714 32.48h-2v2.03h2v-2.03ZM37.714 29.87h-2v2.03h2v-2.03ZM37.714 27.26h-2v2.03h2v-2.03ZM37.714 24.65h-2v2.03h2v-2.03ZM37.714 22.04h-2v2.03h2v-2.03ZM37.714 19.43h-2v2.03h2v-2.03ZM37.714 16.82h-2v2.03h2v-2.03ZM37.714 13.63h-2v2.03h2v-2.03ZM4.572 55.97h-2V58h2v-2.03ZM4.572 53.36h-2v2.03h2v-2.03ZM4.572 50.75h-2v2.03h2v-2.03ZM4.572 48.14h-2v2.03h2v-2.03ZM4.572 45.53h-2v2.03h2v-2.03ZM4.572 42.92h-2v2.03h2v-2.03ZM4.572 40.31h-2v2.03h2v-2.03ZM4.572 37.7h-2v2.03h2V37.7ZM4.572 35.09h-2v2.03h2v-2.03ZM4.572 32.48h-2v2.03h2v-2.03ZM4.572 29.87h-2v2.03h2v-2.03ZM4.572 27.26h-2v2.03h2v-2.03ZM4.572 24.36h-2v2.03h2v-2.03ZM4.572 19.72h-2v2.03h2v-2.03ZM4.572 13.34h-2v2.03h2v-2.03ZM4.572 7.54h-2v2.03h2V7.54ZM17.428 27.26h-2v2.03h2v-2.03ZM17.428 24.65h-2v2.03h2v-2.03ZM17.428 22.04h-2v2.03h2v-2.03ZM17.428 17.69h-2v2.03h2v-2.03ZM17.428 10.44h-2v2.03h2v-2.03ZM27.714 27.26h-2v2.03h2v-2.03ZM27.714 24.65h-2v2.03h2v-2.03ZM27.714 20.01h-2v2.03h2v-2.03ZM27.714 15.37h-2v2.03h2v-2.03ZM40.285 55.97h-2V58h2v-2.03ZM40.285 53.36h-2v2.03h2v-2.03ZM40.285 50.75h-2v2.03h2v-2.03ZM40.285 48.14h-2v2.03h2v-2.03ZM40.285 45.53h-2v2.03h2v-2.03ZM40.285 42.92h-2v2.03h2v-2.03ZM40.285 40.31h-2v2.03h2v-2.03ZM40.285 37.7h-2v2.03h2V37.7ZM40.285 35.09h-2v2.03h2v-2.03ZM40.285 32.48h-2v2.03h2v-2.03ZM40.285 29.87h-2v2.03h2v-2.03ZM40.285 27.26h-2v2.03h2v-2.03ZM40.285 24.65h-2v2.03h2v-2.03ZM40.285 22.04h-2v2.03h2v-2.03ZM40.285 19.43h-2v2.03h2v-2.03ZM40.285 16.82h-2v2.03h2v-2.03ZM7.142 55.97h-2V58h2v-2.03ZM7.142 53.36h-2v2.03h2v-2.03ZM7.142 50.75h-2v2.03h2v-2.03ZM7.142 48.14h-2v2.03h2v-2.03ZM7.142 45.53h-2v2.03h2v-2.03ZM7.142 42.92h-2v2.03h2v-2.03ZM7.142 40.31h-2v2.03h2v-2.03ZM7.142 37.7h-2v2.03h2V37.7ZM7.142 35.09h-2v2.03h2v-2.03ZM7.142 32.48h-2v2.03h2v-2.03ZM7.142 29.87h-2v2.03h2v-2.03ZM7.142 27.26h-2v2.03h2v-2.03ZM7.142 24.65h-2v2.03h2v-2.03ZM7.142 21.46h-2v2.03h2v-2.03ZM7.142 16.24h-2v2.03h2v-2.03ZM7.142 10.44h-2v2.03h2v-2.03ZM7.142 2.9h-2v2.03h2V2.9ZM20 27.26h-2v2.03h2v-2.03ZM20 24.65h-2v2.03h2v-2.03ZM20 21.75h-2v2.03h2v-2.03ZM20 18.56h-2v2.03h2v-2.03ZM20 14.21h-2v2.03h2v-2.03ZM30.286 27.26h-2v2.03h2v-2.03ZM30.286 24.65h-2v2.03h2v-2.03ZM30.286 22.04h-2v2.03h2v-2.03ZM30.286 19.43h-2v2.03h2v-2.03ZM30.286 13.05h-2v2.03h2v-2.03ZM42.856 55.97h-2V58h2v-2.03ZM42.856 53.36h-2v2.03h2v-2.03ZM42.856 50.75h-2v2.03h2v-2.03ZM42.856 48.14h-2v2.03h2v-2.03ZM42.856 45.53h-2v2.03h2v-2.03ZM42.856 42.92h-2v2.03h2v-2.03ZM42.856 40.31h-2v2.03h2v-2.03ZM42.856 37.7h-2v2.03h2V37.7ZM42.856 35.09h-2v2.03h2v-2.03ZM42.856 32.48h-2v2.03h2v-2.03ZM42.856 29.87h-2v2.03h2v-2.03ZM42.856 27.26h-2v2.03h2v-2.03ZM42.856 24.65h-2v2.03h2v-2.03ZM42.856 22.04h-2v2.03h2v-2.03ZM42.856 19.43h-2v2.03h2v-2.03ZM42.856 14.21h-2v2.03h2v-2.03ZM9.714 55.97h-2V58h2v-2.03ZM9.714 53.36h-2v2.03h2v-2.03ZM9.714 50.75h-2v2.03h2v-2.03ZM9.714 48.14h-2v2.03h2v-2.03ZM9.714 45.53h-2v2.03h2v-2.03ZM9.714 42.92h-2v2.03h2v-2.03ZM9.714 40.31h-2v2.03h2v-2.03ZM9.714 37.7h-2v2.03h2V37.7ZM9.714 35.09h-2v2.03h2v-2.03ZM9.714 32.48h-2v2.03h2v-2.03ZM9.714 29.87h-2v2.03h2v-2.03ZM9.714 27.26h-2v2.03h2v-2.03ZM9.714 24.65h-2v2.03h2v-2.03ZM9.714 22.04h-2v2.03h2v-2.03ZM9.714 19.43h-2v2.03h2v-2.03ZM9.714 16.82h-2v2.03h2v-2.03ZM9.714 14.21h-2v2.03h2v-2.03ZM9.714 11.6h-2v2.03h2V11.6ZM9.714 6.38h-2v2.03h2V6.38ZM22.572 27.26h-2v2.03h2v-2.03ZM22.572 24.65h-2v2.03h2v-2.03ZM22.572 20.88h-2v2.03h2v-2.03ZM22.572 15.37h-2v2.03h2v-2.03ZM32.856 27.26h-2v2.03h2v-2.03ZM32.856 24.65h-2v2.03h2v-2.03ZM32.856 22.04h-2v2.03h2v-2.03ZM32.856 18.27h-2v2.03h2v-2.03ZM32.856 14.21h-2v2.03h2v-2.03ZM45.428 55.97h-2V58h2v-2.03ZM45.428 53.36h-2v2.03h2v-2.03ZM45.428 50.75h-2v2.03h2v-2.03ZM45.428 48.14h-2v2.03h2v-2.03ZM45.428 45.53h-2v2.03h2v-2.03ZM45.428 42.92h-2v2.03h2v-2.03ZM45.428 40.31h-2v2.03h2v-2.03ZM45.428 37.7h-2v2.03h2V37.7ZM45.428 35.09h-2v2.03h2v-2.03ZM45.428 32.48h-2v2.03h2v-2.03ZM45.428 29.87h-2v2.03h2v-2.03ZM45.428 27.26h-2v2.03h2v-2.03ZM45.428 24.65h-2v2.03h2v-2.03ZM45.428 22.04h-2v2.03h2v-2.03ZM45.428 19.43h-2v2.03h2v-2.03ZM45.428 16.82h-2v2.03h2v-2.03ZM12.286 55.97h-2V58h2v-2.03ZM12.286 53.36h-2v2.03h2v-2.03ZM12.286 50.75h-2v2.03h2v-2.03ZM12.286 48.14h-2v2.03h2v-2.03ZM12.286 45.53h-2v2.03h2v-2.03ZM12.286 42.92h-2v2.03h2v-2.03ZM12.286 40.31h-2v2.03h2v-2.03ZM12.286 37.7h-2v2.03h2V37.7ZM12.286 35.09h-2v2.03h2v-2.03ZM12.286 32.48h-2v2.03h2v-2.03ZM12.286 29.87h-2v2.03h2v-2.03ZM12.286 27.26h-2v2.03h2v-2.03ZM12.286 24.65h-2v2.03h2v-2.03ZM12.286 21.17h-2v2.03h2v-2.03ZM12.286 14.21h-2v2.03h2v-2.03ZM12.286 8.99h-2v2.03h2V8.99ZM25.142 27.26h-2v2.03h2v-2.03ZM25.142 24.65h-2v2.03h2v-2.03ZM25.142 22.04h-2v2.03h2v-2.03ZM25.142 17.4h-2v2.03h2V17.4ZM25.142 11.6h-2v2.03h2V11.6ZM35.428 27.26h-2v2.03h2v-2.03ZM35.428 24.65h-2v2.03h2v-2.03ZM35.428 21.75h-2v2.03h2v-2.03ZM35.428 16.82h-2v2.03h2v-2.03ZM48 55.97h-2V58h2v-2.03ZM48 53.36h-2v2.03h2v-2.03ZM48 50.75h-2v2.03h2v-2.03ZM48 48.14h-2v2.03h2v-2.03ZM48 45.53h-2v2.03h2v-2.03ZM48 42.92h-2v2.03h2v-2.03ZM48 40.31h-2v2.03h2v-2.03ZM48 37.7h-2v2.03h2V37.7ZM48 35.09h-2v2.03h2v-2.03ZM48 32.48h-2v2.03h2v-2.03ZM48 29.87h-2v2.03h2v-2.03ZM48 27.26h-2v2.03h2v-2.03ZM48 24.65h-2v2.03h2v-2.03ZM48 22.04h-2v2.03h2v-2.03ZM48 19.43h-2v2.03h2v-2.03Z" fill="#E2231A"/></svg>
